app/client/src/assets/icons/blueprintjs/16px/target.svg

<svg width="16" height="16" viewBox="0 0 16 16" fill="none" xmlns="http://www.w3.org/2000/svg">
<path d="M7 4C7 3.44769 7.44775 3 8 3C8.55225 3 9 3.44769 9 4V6C9 6.55231 8.55225 7 8 7C7.44775 7 7 6.55231 7 6V4Z" fill="black"/>
<path d="M10 7C9.44775 7 9 7.44769 9 8C9 8.55231 9.44775 9 10 9H12C12.5522 9 13 8.55231 13 8C13 7.44769 12.5522 7 12 7H10Z" fill="black"/>
<path d="M3 8C3 7.44769 3.44775 7 4 7H6C6.55225 7 7 7.44769 7 8C7 8.55231 6.55225 9 6 9H4C3.44775 9 3 8.55231 3 8Z" fill="black"/>
<path d="M8 9C7.44775 9 7 9.44769 7 10V12C7 12.5523 7.44775 13 8 13C8.55225 13 9 12.5523 9 12V10C9 9.44769 8.55225 9 8 9Z" fill="black"/>
<path fill-rule="evenodd" clip-rule="evenodd" d="M8 16C12.4183 16 16 12.4183 16 8C16 3.58173 12.4183 0 8 0C3.58167 0 0 3.58173 0 8C0 12.4183 3.58167 16 8 16ZM8 14C11.3137 14 14 11.3137 14 8C14 4.68628 11.3137 2 8 2C4.68628 2 2 4.68628 2 8C2 11.3137 4.68628 14 8 14Z" fill="black"/>
</svg>

<svg xmlns="http://www.w3.org/2000/svg" width="16" height="16"><path d="M7 4a1 1 0 0 1 2 0v2a1 1 0 0 1-2 0V4ZM10 7a1 1 0 0 0 0 2h2a1 1 0 0 0 0-2h-2ZM3 8a1 1 0 0 1 1-1h2a1 1 0 0 1 0 2H4a1 1 0 0 1-1-1ZM8 9a1 1 0 0 0-1 1v2a1 1 0 0 0 2 0v-2a1 1 0 0 0-1-1Z"/><path fill-rule="evenodd" d="M8 16A8 8 0 1 0 8 0a8 8 0 0 0 0 16Zm0-2A6 6 0 1 0 8 2a6 6 0 0 0 0 12Z" clip-rule="evenodd"/></svg>
